X:107
T:Union Quickstep
S:American Veteran Fifer #107
C:By C.E. Larrabee, Binghamton, N.Y.
M:2/4
L:1/8
Q:1/8=180
K:D 
%%MIDI program 72
%%MIDI transpose 8
%%MIDI ratio 3 1
|: ((3A/B/c/) | ddd c/d/ | e/c/A/c/ ee | d/c/B/c/ A/c/e/c/ | d d/f/ aa/f/ |
ddd c/d/ | e/c/A/c/ ee | d/c/B/c/ A/c/e/c/ | dfd :|
|: A | g2 g/d/e/f/ | g2 gf | eee d/e/ | f2 fa/f/ |
ddd c/d/ | d/c/A/c/ ee | d/c/B/c/ A/c/e/c/ | dfd :|


